img/map-marker.svg

<svg width="14" height="20" viewBox="0 0 14 20" fill="none" xmlns="http://www.w3.org/2000/svg">
<path d="M7 0C3.13 0 0 3.13 0 7C0 11.17 4.42 16.92 6.24 19.11C6.64 19.59 7.37 19.59 7.77 19.11C9.58 16.92 14 11.17 14 7C14 3.13 10.87 0 7 0ZM7 9.5C6.33696 9.5 5.70107 9.23661 5.23223 8.76777C4.76339 8.29893 4.5 7.66304 4.5 7C4.5 6.33696 4.76339 5.70107 5.23223 5.23223C5.70107 4.76339 6.33696 4.5 7 4.5C7.66304 4.5 8.29893 4.76339 8.76777 5.23223C9.23661 5.70107 9.5 6.33696 9.5 7C9.5 7.66304 9.23661 8.29893 8.76777 8.76777C8.29893 9.23661 7.66304 9.5 7 9.5Z" fill="#BDBDBD"/>
</svg>

<svg width="14" height="20" viewBox="0 0 14 20" xmlns="http://www.w3.org/2000/svg" fill="none"><path d="M7 0c-3.87 0-7 3.13-7 7 0 4.17 4.42 9.92 6.24 12.11.4.48 1.13.48 1.53 0 1.81-2.19 6.23-7.94 6.23-12.11 0-3.87-3.13-7-7-7zm0 9.5c-.663 0-1.299-.263-1.768-.732-.469-.469-.732-1.105-.732-1.768s.263-1.299.732-1.768c.469-.469 1.105-.732 1.768-.732s1.299.263 1.768.732c.469.469.732 1.105.732 1.768s-.263 1.299-.732 1.768c-.469.469-1.105.732-1.768.732z" fill="#BDBDBD"/></svg>
